X:1
T:I Choose Jesus
T:James Rowe
T:I Choose Jesus
T:Musi
T:Musi
C:James Rowe
Z:Musi
%%score ( 1 2 ) ( 3 4 )
L:1/8
M:6/8
K:Eb
V:1 treble 
V:2 treble 
V:3 bass 
V:4 bass 
V:1
 [EB][Ec][EB] [EG][E^F][EG] | [EB]2 [EG] [B,E]3 | [B,D][DF][DA] [Dc]2 [Ad] | ([^Fc]3 [GB]3) | %4
w: 1.~When I need some- one in|time of grief,|Some- one my cheer to|be, *|
w: 2.~When I need some- one to|guide my soul|O- ver the storm- y|sea, *|
w: 3.~When I need help to de-|feat the foe,|Some- one my shield to|be, *|
w: 4.~When all my tri- als on|earth are o’er,|And the dark stream I|see, *|
 [EB][Ec][EB] [EG][E^F][EG] | [EB]2 [EG] [Ge]3 | [Fd][DB][DF] [Ec]2 [Fd] | ([DB]3 [AB]3) || %8
w: Je- sus I choose, for He|gives re- lief,|He is the best for|me. *|
w: Al- ways to Je- sus I|give con- trol,|He is the best for|me. *|
w: Al- ways to Je- sus in|faith I go,|He is the best for|me. *|
w: Je- sus shall bear me to|yon- der shore,|He is the best for|me. *|
"^Refrain" [GB]3 [Gc]3 | [GB]3 [Gc]3 | [GB]2 [B,E] [B,D]2 [B,E] | [DA]6 | [Ac]3 [Ad]3 | %13
w: |||||
w: |||||
w: |||||
w: |||||
 [Ac]3 [Ad]3 | [Ac]2 [DF] [^C=E]2 [DF] | E2 D [EB]3 | [GB]3 [Gc]3 | [GB]3 [Gc]3 | %18
w: |||||
w: |||||
w: |||||
w: |||||
 [GB]2 [EG] [EA]2 [EB] | [Ec]6 | [Ec]3 [Ee]3 | [EB]3 [Ee]3 | [EB][Ec][EB] [DG]2 [DF] | %23
w: |||||
w: |||||
w: |||||
w: |||||
 (E2 C [B,E]6) |] %24
w: |
w: |
w: |
w: |
V:2
 x6 | x6 | x6 | x6 | x6 | x6 | x6 | x6 || x6 | x6 | x6 | x6 | x6 | x6 | x6 | B3- x3 | x6 | x6 | %18
 x6 | x6 | x6 | x6 | x6 | E3- x6 |] %24
V:3
 [E,G,][E,A,][E,G,] [E,B,][E,=A,][E,B,] | [E,G,]2 [E,B,] [E,G,]3 | %2
w: ~ ~ ~ ~ ~ ~|~ ~ ~|
 [B,,A,][B,,A,][B,,B,] [B,,A,]2 [B,,B,] | ([E,=A,]3 [E,B,]3) | %4
w: ~ ~ ~ ~ ~|~ *|
 [E,G,][E,A,][E,G,] [E,B,][E,=A,][E,B,] | [E,G,]2 [E,B,] [C,C]3 | %6
w: ~ ~ ~ ~ ~ ~|~ ~ ~|
 [F,B,][F,B,][F,B,] [F,=A,]2 [F,A,] | ([B,,B,]3 [B,,D]3) || ([E,E]2 [E,E]) ([E,E]2 [E,E]) | %9
w: ~ ~ ~ ~ ~|~ *|I * choose *|
 ([E,E]2 [E,E]) ([E,E]2 [E,E]) | [E,E]2 [G,B,] [F,A,]2 [E,G,] | ([B,,F,]2 [B,,F,] [B,,F,]3) | %12
w: Je- * sus *|when I need a|friend, * *|
 ([B,,B,]2 [B,,B,]) ([B,,B,]2 [B,,B,]) | ([B,,B,]2 [B,,B,]) ([B,,B,]2 [B,,B,]) | %14
w: What * I *|need * I *|
 [B,,B,]2 [B,,B,] [B,,B,]2 [A,,B,] | ([G,,B,]2 [B,,A,] [E,G,]3) | ([E,E]2 [E,E]) ([E,E]2 [E,E]) | %17
w: know that He will|send; * *|I * have *|
 ([E,E]2 [E,E]) ([E,E]2 [E,E]) | [E,E]2 [_D,B,] [C,A,]2 [B,,G,] | ([A,,A,]2 [A,,A,] [A,,A,]3) | %20
w: proved * Him, *|good and true is|He; * *|
 ([=A,,^F,]2 [A,,F,]) ([A,,F,]2 [A,,F,]) | ([B,,G,]2 [B,,G,]) [_C,^F,]3 | %22
w: I * choose *|Je- * sus,|
 [B,,G,][B,,A,][B,,G,] [B,,B,]2 [B,,A,] | (G,2 A, [E,G,]6) |] %24
w: He is the best for|me. * *|
V:4
 x6 | x6 | x6 | x6 | x6 | x6 | x6 | x6 || x6 | x6 | x6 | x6 | x6 | x6 | x6 | x6 | x6 | x6 | x6 | %19
 x6 | x6 | x6 | x6 | E,3- x6 |] %24

